X:1
T:[ID 6-49a]
T:[ID 6-49a]
T:Bezeichnung standardisiert: Tantz Tantz 19.
T:Urheber unbekannt Datum in der hier transkribierten schriftlichen Quelle: 1775
C:Urheber unbekannt
C:Datum in der hier transkribierten schriftlichen Quelle: 1775
L:1/8
M:2/4
K:G
V:1 treble 
V:1
 B,2 D2 | G/A/G/F/ B,D | G2 A2 | B/c/B/A/ Bc | d2 e2 | BB/c/ BA | BAAG | G2 F2 ::!p! B2 A2 | %9
 G2 D2 | (3BcB (3ABA | (3GAG D2 | B,DGA | BB/c/ BA | G2 D2 | B,4 :| %16

